X:3106
T:Clips of Mower
R:polka
H:Inspired by Larry Mallette, who posted the original version
Z:id:hn-polka-103
M:2/4
L:1/8
K:Ador
aa ba/g/|ea ge/d/|cA B/A/G|EG AB/d/|ea ba/g/|ea ge/d/|cA B/A/G|EG A2:|
ee d/B/A|ee d/B/A|G>B dB/A/|GB dB/d/|[1 ee d/B/A|ee d/B/A|G>B dB/A/|EG A2:|
[2 e>e de|ce Be|EG BA/G/|ED/B,/ A,2||


